communes/393.svg

<?xml version="1.0" encoding="UTF-8" standalone="no"?>
<svg
   xmlns:dc="http://purl.org/dc/elements/1.1/"
   xmlns:cc="http://web.resource.org/cc/"
   xmlns:rdf="http://www.w3.org/1999/02/22-rdf-syntax-ns#"
   xmlns:svg="http://www.w3.org/2000/svg"
   xmlns="http://www.w3.org/2000/svg"
   xmlns:xlink="http://www.w3.org/1999/xlink"
   xmlns:sodipodi="http://sodipodi.sourceforge.net/DTD/sodipodi-0.dtd"
   xmlns:inkscape="http://www.inkscape.org/namespaces/inkscape"
   height="763"
   width="603"
   version="1.0"
   id="svg20"
   sodipodi:version="0.32"
   inkscape:version="0.44.1"
   sodipodi:docname="Rüti bei Büren-coat of arms.svg"
   sodipodi:docbase="F:\Mis Documentos\Mis imágenes\Encyclopédie\Escudos de Suiza">
  <metadata
     id="metadata31">
    <rdf:RDF>
      <cc:Work
         rdf:about="">
        <dc:format>image/svg+xml</dc:format>
        <dc:type
           rdf:resource="http://purl.org/dc/dcmitype/StillImage" />
        <dc:date>07-AUG-2006</dc:date>
        <dc:creator>
          <cc:Agent>
            <dc:title>Jérôme BLUM (wagner51)</dc:title>
          </cc:Agent>
        </dc:creator>
        <cc:license
           rdf:resource="http://creativecommons.org/licenses/GPL/2.0/" />
        <dc:coverage />
        <dc:description>Gabarit pour le Projet:Blasons de WIkipédia</dc:description>
        <dc:subject>
          <rdf:Bag>
            <rdf:li>blason suisse modèle gabarit projet blasons</rdf:li>
          </rdf:Bag>
        </dc:subject>
        <dc:language>fr</dc:language>
        <dc:title>Gabrit d'un blason suisse</dc:title>
      </cc:Work>
      <cc:License
         rdf:about="http://creativecommons.org/licenses/GPL/2.0/">
        <cc:permits
           rdf:resource="http://web.resource.org/cc/Reproduction" />
        <cc:permits
           rdf:resource="http://web.resource.org/cc/Distribution" />
        <cc:requires
           rdf:resource="http://web.resource.org/cc/Notice" />
        <cc:permits
           rdf:resource="http://web.resource.org/cc/DerivativeWorks" />
        <cc:requires
           rdf:resource="http://web.resource.org/cc/ShareAlike" />
        <cc:requires
           rdf:resource="http://web.resource.org/cc/SourceCode" />
      </cc:License>
    </rdf:RDF>
  </metadata>
  <defs
     id="defs29">
    <linearGradient
       id="linearGradient2893">
      <stop
         style="stop-color:#ffffff;stop-opacity:0.3137255;"
         offset="0"
         id="stop2895" />
      <stop
         id="stop2897"
         offset="0.19"
         style="stop-color:#ffffff;stop-opacity:0.25098041;" />
      <stop
         style="stop-color:#6b6b6b;stop-opacity:0.1254902;"
         offset="0.60000002"
         id="stop2901" />
      <stop
         style="stop-color:#000000;stop-opacity:0.1254902;"
         offset="1"
         id="stop2899" />
    </linearGradient>
    <linearGradient
       id="linearGradient2955">
      <stop
         style="stop-color:white;stop-opacity:0;"
         offset="0"
         id="stop2965" />
      <stop
         style="stop-color:black;stop-opacity:0.64583331;"
         offset="1"
         id="stop2959" />
    </linearGradient>
    <radialGradient
       inkscape:collect="always"
       xlink:href="#linearGradient2893"
       id="radialGradient3236"
       gradientUnits="userSpaceOnUse"
       gradientTransform="matrix(1.215027,1.531577e-24,1.464684e-23,1.266667,-839.1924,-490.4894)"
       cx="858.04236"
       cy="579.93323"
       fx="858.04236"
       fy="579.93323"
       r="300" />
  </defs>
  <sodipodi:namedview
     inkscape:window-height="682"
     inkscape:window-width="1024"
     inkscape:pageshadow="2"
     inkscape:pageopacity="0.0"
     guidetolerance="10.0"
     gridtolerance="10.0"
     objecttolerance="10.0"
     borderopacity="1.0"
     bordercolor="#666666"
     pagecolor="#ffffff"
     id="base"
     inkscape:zoom="0.48301887"
     inkscape:cx="403.94766"
     inkscape:cy="415.44702"
     inkscape:window-x="-4"
     inkscape:window-y="-4"
     inkscape:current-layer="layer2"
     showgrid="true" />
  <desc
     id="desc22">Coat of Arms of Canton of Freiburg (Fribourg)</desc>
  <g
     inkscape:groupmode="layer"
     id="layer1"
     inkscape:label="Fond écu"
     sodipodi:insensitive="true">
    <path
       id="path1899"
       d="M 1.5,1.49998 L 1.5,460.3679 C 1.5,626.6785 135.81456,761.5 301.49999,761.5 C 467.18543,761.5 601.5,626.6785 601.5,460.3679 L 601.5,1.49998 L 1.5,1.49998 z "
       style="fill:#e20909;fill-opacity:1" />
  </g>
  <g
     inkscape:groupmode="layer"
     id="layer2"
     inkscape:label="Meubles"
     sodipodi:insensitive="true">
    <g
       id="g18181"
       transform="matrix(4.156143,0,0,4.156143,-2682.962,-1364.753)">
      <g
         id="g18177">
        <path
           sodipodi:nodetypes="cccccscc"
           id="path16395"
           d="M 739.54124,339.42334 L 721.09397,377.74121 C 735.29531,394.4034 690.98185,446.83029 680.447,490.02393 L 698.63548,499.42334 C 698.87778,468.8935 712.57071,451.14292 721.22336,428 C 727.96521,413.72593 733.28646,399.14171 739.03398,384.1998 C 743.88695,371.58346 749.33459,360.43379 756.35276,348.77637 C 749.81169,343.06744 746.39409,341.59564 739.54124,339.42334 z "
           style="fill:#fcef3c;fill-opacity:1;fill-rule:evenodd;stroke:black;stroke-width:1px;stroke-linecap:butt;stroke-linejoin:miter;stroke-opacity:1" />
        <path
           sodipodi:nodetypes="cccccccccc"
           id="path16397"
           d="M 753.1022,363.16864 L 745.70579,376.96484 C 737.22822,372.71158 730.31483,368.97971 723.89427,365.41211 C 726.85314,356.44358 730.52519,350.32774 734.15305,344.03516 C 760.69408,355.44318 775.47035,364.46007 786.99973,384.29395 L 770.08102,397.72551 C 764.47944,387.96217 759.54695,377.91208 749.30465,370.13762 L 753.37669,362.48242 C 764.72274,365.50634 778.08997,374.69412 786.94099,384.34104 C 776.96076,374.9896 764.06156,366.29181 753.1022,363.16864 z "
           style="fill:white;fill-opacity:1;fill-rule:evenodd;stroke:black;stroke-width:1px;stroke-linecap:butt;stroke-linejoin:miter;stroke-opacity:1" />
      </g>
      <g
         id="g18173">
        <path
           style="fill:#fcef3c;fill-opacity:1;fill-rule:evenodd;stroke:black;stroke-width:1px;stroke-linecap:butt;stroke-linejoin:miter;stroke-opacity:1"
           d="M 695.90576,339.42334 L 714.35303,377.74121 C 699.68507,396.26987 744.26537,447.6294 755,490.02393 L 736.81152,499.42334 C 736.56922,468.8935 722.09992,451.6605 713.44727,428.51758 C 706.70542,414.24351 702.16054,399.14171 696.41302,384.1998 C 691.56005,371.58346 685.07725,360.69258 678.05908,349.03516 C 684.00797,343.61497 689.95687,341.67865 695.90576,339.42334 z "
           id="path14615"
           sodipodi:nodetypes="cccccscc" />
        <path
           style="fill:white;fill-opacity:1;fill-rule:evenodd;stroke:black;stroke-width:1px;stroke-linecap:butt;stroke-linejoin:miter;stroke-opacity:1"
           d="M 682.3448,363.16864 L 689.74121,376.96484 C 698.21878,372.71158 705.13217,368.97971 711.55273,365.41211 C 708.59386,356.44358 704.92181,350.32774 701.29395,344.03516 C 674.75292,355.44318 659.97665,364.46007 648.44727,384.29395 L 665.36598,397.72551 C 670.96756,387.96217 675.90005,377.91208 686.14235,370.13762 L 682.07031,362.48242 C 670.72426,365.50634 657.35703,374.69412 648.50601,384.34104 C 658.48624,374.9896 671.38544,366.29181 682.3448,363.16864 z "
           id="path15502"
           sodipodi:nodetypes="cccccccccc" />
      </g>
    </g>
    <path
       sodipodi:type="star"
       style="opacity:1;fill:white;fill-opacity:1;fill-rule:evenodd;stroke:black;stroke-width:3;stroke-linecap:square;stroke-linejoin:miter;stroke-miterlimit:4;stroke-dasharray:none;stroke-opacity:1"
       id="path18189"
       sodipodi:sides="5"
       sodipodi:cx="47.617188"
       sodipodi:cy="348.9375"
       sodipodi:r1="127.50503"
       sodipodi:r2="63.752518"
       sodipodi:arg1="0.56548389"
       sodipodi:arg2="1.1938024"
       inkscape:flatsided="false"
       inkscape:rounded="0"
       inkscape:randomized="0"
       d="M 155.27343,417.25781 L 71.086221,408.21303 L 15.908321,472.43681 L -1.5048575,389.57502 L -79.636216,356.94396 L -6.2109394,314.77734 L 0.67912571,230.38645 L 63.471621,287.18784 L 145.86127,267.66246 L 111.24389,344.93427 L 155.27343,417.25781 z "
       transform="matrix(0.901285,0.378907,-0.378907,0.901285,218.49,71.63106)" />
    <path
       transform="matrix(0.901285,0.378907,-0.378907,0.901285,558.49,71.63106)"
       d="M 155.27343,417.25781 L 71.086221,408.21303 L 15.908321,472.43681 L -1.5048575,389.57502 L -79.636216,356.94396 L -6.2109394,314.77734 L 0.67912571,230.38645 L 63.471621,287.18784 L 145.86127,267.66246 L 111.24389,344.93427 L 155.27343,417.25781 z "
       inkscape:randomized="0"
       inkscape:rounded="0"
       inkscape:flatsided="false"
       sodipodi:arg2="1.1938024"
       sodipodi:arg1="0.56548389"
       sodipodi:r2="63.752518"
       sodipodi:r1="127.50503"
       sodipodi:cy="348.9375"
       sodipodi:cx="47.617188"
       sodipodi:sides="5"
       id="path18191"
       style="opacity:1;fill:white;fill-opacity:1;fill-rule:evenodd;stroke:black;stroke-width:3;stroke-linecap:square;stroke-linejoin:miter;stroke-miterlimit:4;stroke-dasharray:none;stroke-opacity:1"
       sodipodi:type="star" />
  </g>
  <g
     inkscape:groupmode="layer"
     id="layer3"
     inkscape:label="Reflet final"
     style="display:inline"
     sodipodi:insensitive="true">
    <path
       style="fill:url(#radialGradient3236);fill-opacity:1"
       d="M 1.5,1.5 L 1.5,460.3679 C 1.5,626.67854 135.81454,761.5 301.49993,761.5 C 467.1854,761.5 601.5,626.67854 601.5,460.3679 L 601.5,1.5 L 1.5,1.5 z "
       id="path2346" />
  </g>
  <g
     inkscape:groupmode="layer"
     id="layer4"
     inkscape:label="Contour final"
     style="display:inline"
     sodipodi:insensitive="true">
    <path
       style="fill:none;fill-opacity:1;stroke:#000000;stroke-width:3;stroke-miterlimit:4;stroke-dasharray:none;stroke-opacity:1"
       d="M 1.5,1.5 L 1.5,460.36794 C 1.5,626.67854 135.81454,761.5 301.49993,761.5 C 467.1854,761.5 601.5,626.67854 601.5,460.36794 L 601.5,1.5 L 1.5,1.5 z "
       id="path3239" />
  </g>
</svg>

<?xml version="1.0" encoding="UTF-8"?>
<svg version="1.0" viewBox="0 0 603 763" xmlns="http://www.w3.org/2000/svg" xmlns:cc="http://web.resource.org/cc/" xmlns:dc="http://purl.org/dc/elements/1.1/" xmlns:rdf="http://www.w3.org/1999/02/22-rdf-syntax-ns#" xmlns:xlink="http://www.w3.org/1999/xlink">
<metadata>
<rdf:RDF>
<cc:Work rdf:about="">
<dc:format>image/svg+xml</dc:format>
<dc:type rdf:resource="http://purl.org/dc/dcmitype/StillImage"/>
<dc:date>07-AUG-2006</dc:date>
<dc:creator>
<cc:Agent>
<dc:title>Jérôme BLUM (wagner51)</dc:title>
</cc:Agent>
</dc:creator>
<cc:license rdf:resource="http://creativecommons.org/licenses/GPL/2.0/"/>
<dc:coverage/>
<dc:description>Gabarit pour le Projet:Blasons de WIkipédia</dc:description>
<dc:subject>
<rdf:Bag>
<rdf:li>blason suisse modèle gabarit projet blasons</rdf:li>
</rdf:Bag>
</dc:subject>
<dc:language>fr</dc:language>
<dc:title>Gabrit d'un blason suisse</dc:title>
</cc:Work>
<cc:License rdf:about="http://creativecommons.org/licenses/GPL/2.0/">
<cc:permits rdf:resource="http://web.resource.org/cc/Reproduction"/>
<cc:permits rdf:resource="http://web.resource.org/cc/Distribution"/>
<cc:requires rdf:resource="http://web.resource.org/cc/Notice"/>
<cc:permits rdf:resource="http://web.resource.org/cc/DerivativeWorks"/>
<cc:requires rdf:resource="http://web.resource.org/cc/ShareAlike"/>
<cc:requires rdf:resource="http://web.resource.org/cc/SourceCode"/>
</cc:License>
</rdf:RDF>
</metadata>
<defs>
<radialGradient id="a" cx="858.04" cy="579.93" r="300" gradientTransform="matrix(1.215 1.5316e-24 1.4647e-23 1.2667 -839.19 -490.49)" gradientUnits="userSpaceOnUse">
<stop stop-color="#fff" stop-opacity=".31373" offset="0"/>
<stop stop-color="#fff" stop-opacity=".25098" offset=".19"/>
<stop stop-color="#6b6b6b" stop-opacity=".12549" offset=".6"/>
<stop stop-opacity=".12549" offset="1"/>
</radialGradient>
</defs>
<desc>Coat of Arms of Canton of Freiburg (Fribourg)</desc>
<path d="m1.5 1.5v458.87c0 166.31 134.31 301.13 300 301.13 165.69 0 300-134.82 300-301.13v-458.87h-600z" fill="#e20909"/>
<g fill-rule="evenodd" stroke="#000">
<g transform="matrix(4.1561 0 0 4.1561 -2683 -1364.8)" stroke-width="1px">
<path d="m739.54 339.42-18.447 38.318c14.201 16.662-30.112 69.089-40.647 112.28l18.188 9.3994c0.2423-30.53 13.935-48.28 22.588-71.423 6.7418-14.274 12.063-28.858 17.811-43.8 4.853-12.616 10.301-23.766 17.319-35.423-6.5411-5.7089-9.9587-7.1807-16.812-9.353z" fill="#fcef3c"/>
<path d="m753.1 363.17-7.3964 13.796c-8.4776-4.2533-15.391-7.9851-21.812-11.553 2.9589-8.9685 6.6309-15.084 10.259-21.377 26.541 11.408 41.317 20.425 52.847 40.259l-16.919 13.432c-5.6016-9.7633-10.534-19.813-20.776-27.588l4.072-7.6552c11.346 3.0239 24.713 12.212 33.564 21.859-9.9802-9.3514-22.879-18.049-33.839-21.172z" fill="#fff"/>
<path d="m695.91 339.42 18.447 38.318c-14.668 18.529 29.912 69.888 40.647 112.28l-18.188 9.3994c-0.2423-30.53-14.712-47.763-23.364-70.906-6.7418-14.274-11.287-29.376-17.034-44.318-4.853-12.616-11.336-23.507-18.354-35.165 5.9489-5.4202 11.898-7.3565 17.847-9.6118z" fill="#fcef3c"/>
<path d="m682.34 363.17 7.3964 13.796c8.4776-4.2533 15.391-7.9851 21.812-11.553-2.9589-8.9685-6.6309-15.084-10.259-21.377-26.541 11.408-41.317 20.425-52.847 40.259l16.919 13.432c5.6016-9.7633 10.534-19.813 20.776-27.588l-4.072-7.6552c-11.346 3.0239-24.713 12.212-33.564 21.859 9.9802-9.3514 22.879-18.049 33.839-21.172z" fill="#fff"/>
</g>
<path transform="matrix(.90128 .37891 -.37891 .90128 218.49 71.631)" d="m155.27 417.26-84.187-9.0448-55.178 64.224-17.413-82.862-78.131-32.631 73.425-42.167 6.8901-84.391 62.792 56.801 82.39-19.525-34.617 77.272 44.03 72.324z" fill="#fff" stroke-linecap="square" stroke-width="3"/>
<path transform="matrix(.90128 .37891 -.37891 .90128 558.49 71.631)" d="m155.27 417.26-84.187-9.0448-55.178 64.224-17.413-82.862-78.131-32.631 73.425-42.167 6.8901-84.391 62.792 56.801 82.39-19.525-34.617 77.272 44.03 72.324z" fill="#fff" stroke-linecap="square" stroke-width="3"/>
</g>
<g>
<path d="m1.5 1.5v458.87c0 166.31 134.31 301.13 300 301.13 165.69 0 300-134.82 300-301.13v-458.87h-600z" fill="url(#a)"/>
<path d="m1.5 1.5v458.87c0 166.31 134.31 301.13 300 301.13 165.69 0 300-134.82 300-301.13v-458.87h-600z" fill="none" stroke="#000" stroke-width="3"/>
</g>
</svg>
